!!!!SEGMENT: Fsc2019-In_illo_tempore.krn
!!!id: Fsc2019
!!!AGN: Motet
!!!SCT: Seay (1979)
!!!voices: 5
!!!COM: Costanzo Festa
!!!OTL: In illo tempore
**kern	**kern	**kern	**kern	**kern
*part5	*part4	*part3	*part2	*part1
*staff5	*staff4	*staff3	*staff2	*staff1
*I"Bassus	*I"Tenor II	*I"Tenor I	*I"Altus	*I"Superius
*I'B	*I'T. II	*I'T. I	*I'A	*I'S
*clefF4	*clefGv2	*clefGv2	*clefGv2	*clefG2
*k[b-]	*k[b-]	*k[b-]	*k[b-]	*k[b-]
*F:	*F:	*F:	*F:	*F:
*M2/1	*M2/1	*M2/1	*M2/1	*M2/1
*met(C|)	*met(C|)	*met(C|)	*met(C|)	*met(C|)
!!section: Prima pars: In illo tempore
!!!OMD: Prima pars: In illo tempore
=1	=1	=1	=1	=1
0r	0r	0r	0d	0r
=2	=2	=2	=2	=2
0r	0r	0r	1f	0r
.	.	.	1f	.
=3	=3	=3	=3	=3
0r	0G	0r	1.g	0r
.	.	.	2d	.
=4	=4	=4	=4	=4
0r	1B-y	0r	1d	0r
.	1B-y	.	1f	.
=5	=5	=5	=5	=5
0r	1.c	0r	2.e	0g
.	.	.	8dL	.
.	.	.	8cJ	.
.	.	.	2e	.
.	2G	.	[2d	.
=6	=6	=6	=6	=6
0r	[0G	0r	4d]	1b-y
.	.	.	4c	.
.	.	.	4B-y	.
.	.	.	4A	.
.	.	.	2G	1b-y
.	.	.	[2g	.
=7	=7	=7	=7	=7
0C	0G]	0r	4g]	1.cc
.	.	.	4f	.
.	.	.	4e	.
.	.	.	4d	.
.	.	.	[1e	.
.	.	.	.	2g
=8	=8	=8	=8	=8
1E-X	0r	0r	2e]	2.g
.	.	.	4d	.
.	.	.	4c	4a
1E-i	.	.	1g	4b-y
.	.	.	.	4g
.	.	.	.	[2cc
=9	=9	=9	=9	=9
1.F	1.c	0r	1.f	4cc]
.	.	.	.	4b-y
.	.	.	.	4a
.	.	.	.	4g
.	.	.	.	1a
2C	2c	.	2e	.
=10	=10	=10	=10	=10
0C;	0c;	0r	0e;	0g;
=11	=11	=11	=11	=11
0r	0r	0r	0r	1g
.	.	.	.	1a
=12	=12	=12	=12	=12
0r	0r	0r	1c	1cc
.	.	.	1d	2b-y
.	.	.	.	2b-y
=13	=13	=13	=13	=13
0r	0r	0r	1f	1a
.	.	.	2e	2r
.	.	.	2e	2g
=14	=14	=14	=14	=14
0r	0r	0r	2d	2b-y
.	.	.	2d	2b-y
.	.	.	2f	2a
.	.	.	2f	2a
=15	=15	=15	=15	=15
0r	0r	0r	2c	1cc
.	.	.	2c	.
.	.	.	1e	1g
=16	=16	=16	=16	=16
0r	0r	0r	2.d	1dd
.	.	.	4e	.
.	.	.	4f	[1cc
.	.	.	4g	.
.	.	.	[2a	.
=17	=17	=17	=17	=17
0r	1r	0r	4a]	2cc]
.	.	.	4g	.
.	.	.	1g	2b-y
.	1d	.	.	1a
.	.	.	2f#i	.
=18	=18	=18	=18	=18
0r	1.e	0r	1.g	2.g
.	.	.	.	8aL
.	.	.	.	8b-yJ
.	.	.	.	2cc
.	2d	.	2f	[2b-y
=19	=19	=19	=19	=19
0r	1c	0r	1e	4b-]
.	.	.	.	4a
.	.	.	.	1a
.	1B-y	.	1d	.
.	.	.	.	2g
=20	=20	=20	=20	=20
0r	2.A	0r	2.c	2.f
.	4B-y	.	4d	4g
.	2c	.	2e	2a
.	2d	.	2f	[2b-y
=21	=21	=21	=21	=21
0r	1B-y	0r	1d	4b-]
.	.	.	.	4a
.	.	.	.	1g
.	1A	.	1c	.
.	.	.	.	2f#i
=22	=22	=22	=22	=22
1r	1G	[0G	2r	0g
.	.	.	2d	.
2r	1r	.	2d	.
2d	.	.	2d	.
=23	=23	=23	=23	=23
2d	2r	0G]	1B-y	1r
2d	2d	.	.	.
1B-y	2d	.	1G	2r
.	2d	.	.	2dd
=24	=24	=24	=24	=24
1G	1B-y	[0d	2r	2dd
.	.	.	2d	2dd
1r	1G	.	2d	1b-y
.	.	.	2d	.
=25	=25	=25	=25	=25
2r	1r	0d]	1B-y	1g
2G	.	.	.	.
2G	2g	.	1G	1r
2G	2g	.	.	.
=26	=26	=26	=26	=26
1E	2g	0e	1r	2r
.	1e	.	.	2g
1C	.	.	2r	2g
.	2c	.	2g	2g
=27	=27	=27	=27	=27
2r	2g	[0c	2g	1e
2c	2g	.	2g	.
2c	2g	.	1e	2c
2c	[2e	.	.	2cc
=28	=28	=28	=28	=28
1A	2e]	0c]	1c	2cc
.	1c	.	.	2cc
1F	.	.	2.f	1a
.	[2f	.	.	.
.	.	.	4e	.
=29	=29	=29	=29	=29
2.B-y	4f]	[0d	4d	1f
.	4e	.	4c	.
.	2.d	.	2d	.
4A	.	.	.	.
4G	.	.	2G	2r
4F	4c	.	.	.
[2G	4B-y	.	[2g	[2b-y
.	4A	.	.	.
=30	=30	=30	=30	=30
2G]	1G	0d]	4g]	2b-]
.	.	.	4f	.
4F	.	.	4d	4a
4E	.	.	4e	4g
1D	1F	.	1f	2a
.	.	.	.	2b-y
=31	=31	=31	=31	=31
0C	1G	[0e	2.e	1cc
.	.	.	8dL	.
.	.	.	8cJ	.
.	2r	.	1g	1r
.	2G	.	.	.
=32	=32	=32	=32	=32
1r	1.c	0e]	0r	1g
1C	.	.	.	[1cc
.	2c	.	.	.
=33	=33	=33	=33	=33
1.F	1A	[0f	1c	2cc]
.	.	.	.	2cc
.	1A	.	[1f	1a
2F	.	.	.	.
=34	=34	=34	=34	=34
1D	1.d	0f]	2f]	1a
.	.	.	2f	.
1D	.	.	1d	[1dd
.	2c	.	.	.
=35	=35	=35	=35	=35
1.G	2B-y	[0g	1d	2dd]
.	2A	.	.	2cc
.	1G	.	[1g	2b-y
2F	.	.	.	2a
=36	=36	=36	=36	=36
2E	0r	0g_	2g]	1g
2D	.	.	2f	.
1C	.	.	2e	1r
.	.	.	2d	.
=37	=37	=37	=37	=37
1r	1e	0g_	1c	0cc
1C	[1g	.	1r	.
=38	=38	=38	=38	=38
1.G	2g]	0g]	1G	1.b-y
.	2g	.	.	.
.	1d	.	[1d	.
2G	.	.	.	2b-y
=39	=39	=39	=39	=39
1D	1f	0f	2d]	1a
.	.	.	2d	.
1F	2.c	.	1A	1a
.	4d	.	.	.
=40	=40	=40	=40	=40
0C	4e	0e	1c	1g
.	4f	.	.	.
.	2g	.	.	.
.	2e	.	2G	1cc
.	[2g	.	[2G	.
=41	=41	=41	=41	=41
1G	2g]	[0d	4G]	0b-y
.	.	.	4A	.
.	2.G	.	4B-y	.
.	.	.	4c	.
2.B-y	.	.	2.d	.
.	4A	.	.	.
.	4B-y	.	.	.
4A	4c	.	4c	.
=42	=42	=42	=42	=42
2G	4d	1d]	2B-y	1r
.	4e	.	.	.
2F	4f	.	1A	.
.	4d	.	.	.
1E	1g	1c	.	2r
.	.	.	2G	2g
=43	=43	=43	=43	=43
[0D	2.f	[0d	2B-y	2.dd
.	.	.	2A	.
.	4e	.	.	4cc
.	2d	.	2F	2b-y
.	2c	.	[2f	[2a
=44	=44	=44	=44	=44
0D]	2B-y	0d_	4f]	4a]
.	.	.	4e	4g
.	4A	.	2.d	1g
.	4G	.	.	.
.	1A	.	.	.
.	.	.	4c	.
.	.	.	4B-y	2f#i
.	.	.	4A	.
=45	=45	=45	=45	=45
0G	0G	0d]	0B-y	1g
.	.	.	.	2r
.	.	.	.	[2d
=46	=46	=46	=46	=46
0r	0r	0r	1G	2d]
.	.	.	.	2e
.	.	.	2A	2f
.	.	.	2B-y	2d
=47	=47	=47	=47	=47
0r	0r	0r	2G	2d
.	.	.	2G	2e
.	.	.	2A	2f
.	.	.	2B-y	2d
=48	=48	=48	=48	=48
0r	0r	0r	2G	2e
.	.	.	2A	2f
.	.	.	2B-y	2.g
.	.	.	[2c	.
.	.	.	.	4f
=49	=49	=49	=49	=49
0r	0r	0r	4c]	4e
.	.	.	4B-y	4d
.	.	.	4A	2c
.	.	.	4G	.
.	.	.	2F	2.cc
.	.	.	[2f	.
.	.	.	.	4b-y
=50	=50	=50	=50	=50
0r	0r	0r	4f]	4a
.	.	.	4e	4g
.	.	.	4d	1f
.	.	.	4c	.
.	.	.	1B-y	.
.	.	.	.	[2b-y
=51	=51	=51	=51	=51
0r	1r	0r	1c	4b-]
.	.	.	.	4a
.	.	.	.	4a
.	.	.	.	4g
.	2r	.	1B-y	[1b-y
.	[2d	.	.	.
=52	=52	=52	=52	=52
1G	2d]	0r	2r	1b-]
.	2e	.	2B-y	.
2A	2f	.	2c	1r
2B-y	2d	.	2d	.
=53	=53	=53	=53	=53
2G	2d	0r	2B-y	0r
2G	2e	.	2B-y	.
2A	2f	.	2c	.
2B-y	2d	.	2d	.
=54	=54	=54	=54	=54
2G	2e	0r	2B-y	0r
2A	2f	.	2c	.
2B-y	2.g	.	2d	.
[2c	.	.	[2e	.
.	4f	.	.	.
=55	=55	=55	=55	=55
4c]	4e	0r	2e]	0r
4B-y	4d	.	.	.
4A	2c	.	2.f	.
4G	.	.	.	.
2F	2.f	.	.	.
.	.	.	4d	.
[2B-y	.	.	[2d	.
.	4e	.	.	.
=56	=56	=56	=56	=56
4B-]	4d	0r	2d]	0r
4A	4c	.	.	.
4G	4B-y	.	1g	.
4F	4A	.	.	.
2E	4G	.	.	.
.	4F	.	.	.
2D	[2B-y	.	2f	.
=57	=57	=57	=57	=57
1C	2B-]	0r	1e	0r
.	2A	.	.	.
1BB-y	[1B-y	.	1d	.
=58	=58	=58	=58	=58
1r	0B-]	[0d	1G	1r
2r	.	.	1r	2r
[2G	.	.	.	[2b-y
=59	=59	=59	=59	=59
2G]	0r	0d]	0r	2b-]
2F	.	.	.	2a
2G	.	.	.	2b-y
2G	.	.	.	2b-y
=60	=60	=60	=60	=60
2D	1r	[0d	0r	2a
2G	.	.	.	2b-y
2F	2r	.	.	2a
2D	[2B-y	.	.	2f
=61	=61	=61	=61	=61
1G	2B-]	0d]	2r	1b-y
.	2G	.	1g	.
1D	2A	.	.	1a
.	2A	.	2f	.
=62	=62	=62	=62	=62
0r	2B-y	[0G	2g	0r
.	2d	.	2g	.
.	2g	.	2d	.
.	2d	.	2g	.
=63	=63	=63	=63	=63
0r	1g	0G]	2e	0r
.	.	.	2d	.
.	1d	.	1g	.
=64	=64	=64	=64	=64
1G	1r	[0B-y	1d	0r
2E-X	1g	.	1r	.
2D	.	.	.	.
=65	=65	=65	=65	=65
1G	2e	1B-]	0r	1r
.	2d	.	.	.
[1C	1g	[1c	.	1cc
=66	=66	=66	=66	=66
0C_	[0e	0c_	2r	2a
.	.	.	2c	2g
.	.	.	2A	1cc
.	.	.	2G	.
=67	=67	=67	=67	=67
1C]	1e]	1c]	1c	2.g
.	.	.	.	4a
1r	1d	1B-y	2G	4b-y
.	.	.	.	4cc
.	.	.	[2g	4dd
.	.	.	.	4b-y
=68	=68	=68	=68	=68
0r	1e	0A	2g]	4cc
.	.	.	.	4dd
.	.	.	4f	1ee-i
.	.	.	4e	.
.	1c	.	1f	.
.	.	.	.	4dd
.	.	.	.	4cc
=69	=69	=69	=69	=69
1r	1d	0G	0g	0b-y
2r	2r	.	.	.
2G	2d	.	.	.
=70	=70	=70	=70	=70
2G	2B-y	0r	0r	0r
2G	2B-y	.	.	.
2.B-y	2.d	.	.	.
4A	4c	.	.	.
=71	=71	=71	=71	=71
2G	2B-y	0r	1r	1r
2F	2A	.	.	.
[1G	1G	.	2r	2r
.	.	.	2g	2dd
=72	=72	=72	=72	=72
1G]	0r	0r	2g	2b-y
.	.	.	2g	2b-y
1r	.	.	2.b-y	2.dd
.	.	.	4a	4cc
=73	=73	=73	=73	=73
1r	1r	0r	2g	2b-y
.	.	.	2f	2a
[1G	[1B-y	.	1g	1g
=74	=74	=74	=74	=74
1G]	1B-]	0r	2r	1b-y
.	.	.	2g	.
[1C	[1c	.	2.e	2a
.	.	.	.	[2g
.	.	.	4f	.
=75	=75	=75	=75	=75
1C]	1c]	0r	2g	2g]
.	.	.	2e	2cc
[1D	[1F	.	2f	2b-y
.	.	.	2d	[2a
=76	=76	=76	=76	=76
1D]	1F]	0r	1f	2a]
.	.	.	.	2dd
[1E-X	[1G	.	2e	2cc
.	.	.	[2d	[2b-y
=77	=77	=77	=77	=77
1E-]	1G]	0r	2d]	2b-]
.	.	.	2c	4a
.	.	.	.	4g
[1D	[1A	.	[1d	2.f
.	.	.	.	4g
=78	=78	=78	=78	=78
0D_	1A]	0r	2d]	4a
.	.	.	.	4b-y
.	.	.	2c	2.a
.	[1d	.	2B-y	.
.	.	.	.	4g
.	.	.	4A	[2g
.	.	.	4G	.
=79	=79	=79	=79	=79
1D]	1d]	0r	1A	2g]
.	.	.	.	2f#i
1G	1d	.	1G	1g
=80	=80	=80	=80	=80
1r	1r	0r	1r	1r
2C	2G	.	2c	2e
2C	2G	.	2c	2e
=81	=81	=81	=81	=81
2C	2G	0r	2c	2e
2C	2G	.	2c	2e
2C	2G	.	2c	2e
[2F	[2A	.	[2d	[2f
=82	=82	=82	=82	=82
2F]	2A]	0r	2d]	2f]
2C	2G	.	2c	2e
1D	1F	.	1B-y	1f
=83	=83	=83	=83	=83
[0C	1G	[0c	1.c	1e
.	[1c	.	.	1r
.	.	.	2d	.
=84	=84	=84	=84	=84
0C_	2c]	0c_	[0e	1.cc
.	2B-y	.	.	.
.	2A	.	.	.
.	2G	.	.	2b-y
=85	=85	=85	=85	=85
0C_	1.c	0c_	0e_	2a
.	.	.	.	2g
.	.	.	.	[1cc
.	2B-y	.	.	.
=86	=86	=86	=86	=86
0C_	2A	0c_	0e_	2cc]
.	2G	.	.	2b-y
.	[1c	.	.	2a
.	.	.	.	2g
=87	=87	=87	=87	=87
0C]	2c]	0c_	0e]	1.cc
.	2G	.	.	.
.	1G	.	.	.
.	.	.	.	2g
=88	=88	=88	=88	=88
1r	0r	0c]	0r	1g
[1F	.	.	.	1r
=89	=89	=89	=89	=89
2F]	0r	[0A	1.f	0r
2E	.	.	.	.
2D	.	.	.	.
2C	.	.	2e	.
=90	=90	=90	=90	=90
1.F	0r	0A_	2d	0r
.	.	.	2c	.
.	.	.	[1f	.
2E	.	.	.	.
=91	=91	=91	=91	=91
2D	0r	0A]	2f]	0r
2C	.	.	2e	.
[1F	.	.	2d	.
.	.	.	2c	.
=92	=92	=92	=92	=92
2F]	1r	[0c	2f	1r
2C	.	.	2e	.
1C	1G	.	1e	1g
=93	=93	=93	=93	=93
0r	1.A	0c_	0r	2.e
.	.	.	.	4e
.	.	.	.	2f
.	2A	.	.	2e
=94	=94	=94	=94	=94
0r	2A	0c_	0r	2f
.	2A	.	.	2e
.	2A	.	.	2.cc
.	[2F	.	.	.
.	.	.	.	4b-y
=95	=95	=95	=95	=95
0r	2F]	0c]	0r	2a
.	2G	.	.	1g
.	1A	.	.	.
.	.	.	.	2f#i
=96	=96	=96	=96	=96
2r	1G	[0d	0r	2g
2G	.	.	.	2b-y
2B-y	2r	.	.	2b-y
2B-y	2G	.	.	2b-y
=97	=97	=97	=97	=97
1G	2B-y	0d_	2r	1b-y
.	2G	.	2g	.
1D	1A	.	2g	2a
.	.	.	2f	[2dd
=98	=98	=98	=98	=98
2r	1G	0d]	1g	2dd]
2G	.	.	.	2b-y
2B-y	2r	.	2d	1b-y
2B-y	2G	.	[2g	.
=99	=99	=99	=99	=99
1G	2B-y	[0d	4g]	2r
.	.	.	4g	.
.	2G	.	1g	2.dd
1D	1A	.	.	.
.	.	.	.	4cc
.	.	.	2f	4b-y
.	.	.	.	4a
=100	=100	=100	=100	=100
2r	2G	0d]	2d	1b-y
1B-y	1G	.	1g	.
.	.	.	.	1r
2A	2D	.	2f	.
=101	=101	=101	=101	=101
2G	2B-y	0G	2e	0r
2F	2A	.	1d	.
1E	2.G	.	.	.
.	.	.	2c	.
.	8FL	.	.	.
.	8EJ	.	.	.
=102	=102	=102	=102	=102
0D	2F	0A	[0d	0r
.	1G	.	.	.
.	2F#i	.	.	.
=103	=103	=103	=103	=103
1r	0G	0B-y	0d]	1.g
[1G	.	.	.	.
.	.	.	.	2f
=104	=104	=104	=104	=104
2G]	1r	0G	0r	2e
2F	.	.	.	1d
1E	2r	.	.	.
.	2G	.	.	2c
=105	=105	=105	=105	=105
0D	2B-y	[0F	1.f	2.d
.	1A	.	.	.
.	.	.	.	4e
.	.	.	.	4f
.	.	.	.	4g
.	4G	.	4e	4a
.	4F	.	4d	4b-y
=106	=106	=106	=106	=106
0r	1.f	0F_	2c	2.a
.	.	.	2d	.
.	.	.	.	4b-y
.	.	.	1c	4cc
.	.	.	.	4dd
.	2e	.	.	[2cc
=107	=107	=107	=107	=107
0r	2d	0F]	1f	4cc]
.	.	.	.	4b-y
.	4c	.	.	1b-y
.	4B-y	.	.	.
.	1c	.	1r	.
.	.	.	.	2a
=108	=108	=108	=108	=108
1r	0B-y	0r	1.d	1b-y
[1d	.	.	.	1r
.	.	.	2c	.
=109	=109	=109	=109	=109
2d]	1r	0r	2B-y	1.dd
2c	.	.	2A	.
2B-y	[1d	.	1G	.
2A	.	.	.	2cc
=110	=110	=110	=110	=110
1G	2d]	0r	1r	2b-y
.	2c	.	.	2a
1r	2B-y	.	[1d	1g
.	2A	.	.	.
=111	=111	=111	=111	=111
1.G	1G	0r	2d]	1r
.	.	.	2c	.
.	1r	.	2B-y	[1g
2F	.	.	2A	.
=112	=112	=112	=112	=112
2E	1.g	0r	1G	2g]
2D	.	.	.	2f
[1C	.	.	1r	2e
.	2f	.	.	2d
=113	=113	=113	=113	=113
0C]	2e	0r	1.g	1c
.	2d	.	.	.
.	1c	.	.	[1cc
.	.	.	2f	.
=114	=114	=114	=114	=114
1r	1r	0r	2e	2cc]
.	.	.	2d	2b-y
1F	1A	.	1c	2a
.	.	.	.	2g
=115	=115	=115	=115	=115
1.B-y	1.d	0r	2r	2f
.	.	.	2G	2e
.	.	.	2G	2g
2A	2c	.	2D	2f
=116	=116	=116	=116	=116
2G	2B-y	0r	2G	2e
2F	2A	.	2A	1d
1E	1G	.	2B-y	.
.	.	.	4A	2c#i
.	.	.	4G	.
=117	=117	=117	=117	=117
0D	1A	[0A	0F	0d
.	2r	.	.	.
.	2F	.	.	.
=118	=118	=118	=118	=118
2r	2A	0A_	1r	0r
2F	2A	.	.	.
2A	2.c	.	2r	.
2A	.	.	2F	.
.	4B-y	.	.	.
=119	=119	=119	=119	=119
2.c	2.A	0A_	2A	0r
.	.	.	2A	.
4B-y	4G	.	.	.
2.A	2F	.	2.c	.
.	2E	.	.	.
4G	.	.	4c	.
=120	=120	=120	=120	=120
2F	2D	0A]	2d	0f
2E	2C	.	2e	.
2D	1F	.	2.f	.
2D	.	.	.	.
.	.	.	4g	.
=121	=121	=121	=121	=121
0C	2r	[0c	2a	1e
.	2c	.	2.g	.
.	2e	.	.	1c
.	.	.	4f	.
.	2e	.	4e	.
.	.	.	4d	.
=122	=122	=122	=122	=122
1r	2.g	0c_	2c	1e
.	.	.	4B-y	.
.	4f	.	4A	.
1C	4e	.	2.G	1g
.	4d	.	.	.
.	[2c	.	.	.
.	.	.	8FL	.
.	.	.	8GJ	.
=123	=123	=123	=123	=123
1.F	4c]	0c_	2A	1.f
.	4B-y	.	.	.
.	4A	.	2F	.
.	4G	.	.	.
.	1A	.	2r	.
2F	.	.	2f	2f
=124	=124	=124	=124	=124
1C	1G	0c_	2g	1e
.	.	.	2g	.
2r	1F	.	1a	2c
[2F	.	.	.	[2cc
=125	=125	=125	=125	=125
2F]	2r	0c_	2f	2cc]
2E	2G	.	2g	2cc
2F	2F	.	2a	2cc
2C	2G	.	[2g	2cc
=126	=126	=126	=126	=126
1F	2.A	0c]	4g]	2cc
.	.	.	4f	.
.	.	.	1f	2cc
.	4B-y	.	.	.
1C	1G	.	.	2cc
.	.	.	2e	2cc
=127	=127	=127	=127	=127
2.F	1F	[0A	1f	2.cc
4G	.	.	.	4b-y
4A	1r	.	1r	2a
4B-y	.	.	.	.
2c	.	.	.	2g
=128	=128	=128	=128	=128
4c	0r	0A]	2r	2f
4A	.	.	.	.
1d	.	.	2a	4e
.	.	.	.	4d
.	.	.	2a	1e
2c#i	.	.	2a	.
=129	=129	=129	=129	=129
0d	1r	0B-y	1f	1d
.	1G	.	2.d	1g
.	.	.	4e	.
=130	=130	=130	=130	=130
[0D	1.d	[0A	4f	2a
.	.	.	4g	.
.	.	.	2a	4f
.	.	.	.	4g
.	.	.	2f	4a
.	.	.	.	4b-y
.	2d	.	2d	[2a
=131	=131	=131	=131	=131
0D]	1d	0A]	2f	4a]
.	.	.	.	4g
.	.	.	2d	1g
.	2r	.	1d	.
.	2A	.	.	2f#i
=132	=132	=132	=132	=132
1r	1.d	[0Gl	1B-y	[0gl
1G	.	.	[1d	.
.	2c	.	.	.
=133	=133	=133	=133	=133
1.d	2B-y	0G_	2d]	0g_
.	2A	.	2c	.
.	2G	.	2B-y	.
2c	2A	.	2A	.
=134	=134	=134	=134	=134
2B-y	2B-y	0G_	2G	0g_
2A	2c	.	2A	.
2G	1d	.	1B-y	.
2F	.	.	.	.
=135	=135	=135	=135	=135
2E	2c	0G_	2c	0g_
2D	2B-y	.	2d	.
1C	1c	.	1e	.
=136	=136	=136	=136	=136
00Gl	00B-yl	00G]	00dl	00g]
==	==	==	==	==
*-	*-	*-	*-	*-
!!!system-decoration: [*]
!!!RDF**kern: i = editorial accidental
!!!RDF**kern: l = terminal long
!!!ENC: Benjamin Ory
!!!END: 2021/4/7
!!!EED: Benjamin Ory
!!!EEV: 2021/05/20
!!!YEC: Copyright 2021 Benjamin Ory, All Rights Reserved
!!!ONB: Translated from MusicXML on 2021/05/20
